X: 397
T:Harvest Time
S:Jim Johnstone, Heather Medley (1969)
N:Transposed from G for comparison
M:6/8
L:1/8
Z:https://nigelgatherer.com/
K:D
F/G/ | A2 A AFA | dcd F3 | GFG EFG | B2 A F2 G |
A2A AFA | dcd A2 d | cBA BGE | D3 D2 :|
A | d2 d dcB | AdA F3 | GFG ECE | GBA F2 A |
d2 d dcB | AdA F2 d | cBA BGE | D3 D2 :|

